icons/svg/ucm-cloud_16.svg

<?xml version="1.0" encoding="UTF-8"?>
<svg width="16px" height="16px" viewBox="0 0 16 16" version="1.1" xmlns="http://www.w3.org/2000/svg" xmlns:xlink="http://www.w3.org/1999/xlink">
    <!-- Generator: Sketch 56.3 (81716) - https://sketch.com -->
    <title>ucm-cloud_16</title>
    <desc>Created with Sketch.</desc>
    <g id="Icons-Webex" stroke="none" stroke-width="1" fill="none" fill-rule="evenodd">
        <g id="network/ucm-cloud_16" fill="#000000">
            <g id="ucm-cloud_16">
                <path d="M14.6168434,8.435 L9.07702549,10.784 C8.74303647,10.925 8.37104869,11 8.00006089,11 C7.62907308,11 7.25708531,10.925 6.92309629,10.784 L1.38327838,8.435 C1.13828644,8.331 0.998291039,8.151 1.00026983,7.941 C1.00229091,7.728 1.14628617,7.548 1.39627796,7.448 L3.71720167,6.511 L6.53210914,7.705 C6.99709386,7.902 7.49907736,8 8.00006089,8 C8.50104442,8 9.00302792,7.902 9.46801264,7.705 L12.2829201,6.511 L14.6028439,7.448 C14.8528356,7.548 14.9978309,7.728 14.9998519,7.941 C15.0018307,8.151 14.8618353,8.331 14.6168434,8.435 L14.6168434,8.435 Z M14.6028439,11.448 C14.8528356,11.548 14.9978309,11.728 14.9998519,11.941 C15.0018307,12.151 14.8618353,12.331 14.6168434,12.435 L9.07702549,14.784 C8.74303647,14.925 8.37104869,15 8.00006089,15 C7.62907308,15 7.25708531,14.925 6.92309629,14.784 L1.38327838,12.435 C1.13828644,12.331 0.998291039,12.151 1.00026983,11.941 C1.00229091,11.728 1.14628617,11.548 1.39627796,11.448 L3.71720167,10.511 L6.53210914,11.705 C6.99709386,11.902 7.49907736,12 8.00006089,12 C8.50104442,12 9.00302792,11.902 9.46801264,11.705 L12.2829201,10.511 L14.6028439,11.448 Z M1.00026983,3.941 C1.00229091,3.728 1.14628617,3.548 1.39627796,3.448 L6.96509491,1.2 C7.29208416,1.067 7.63907276,1 8.00006089,1 C8.36004906,1 8.70803762,1.067 9.03502687,1.2 L14.6028439,3.448 C14.8528356,3.548 14.9978309,3.728 14.9998519,3.941 C15.0018307,4.151 14.8618353,4.331 14.6168434,4.435 L9.07702549,6.784 C8.74303647,6.925 8.37104869,7 8.00006089,7 C7.62907308,7 7.25708531,6.925 6.92309629,6.784 L1.38327838,4.435 C1.13828644,4.331 0.998291039,4.151 1.00026983,3.941 L1.00026983,3.941 Z M14.9778315,6.52 L13.5858773,5.958 L15.0068306,5.356 C16.3447866,4.789 16.3267872,3.065 14.9778315,2.52 L9.40901458,0.272 C8.9610293,0.091 8.48004511,0 8.00006089,0 C7.5190767,0 7.03909248,0.091 6.5911072,0.272 L1.02129028,2.52 C-0.326665409,3.065 -0.344664818,4.789 0.993291203,5.356 L2.4142445,5.958 L1.02129028,6.52 C-0.326665409,7.065 -0.344664818,8.789 0.993291203,9.356 L2.4142445,9.958 L1.02129028,10.52 C-0.326665409,11.065 -0.344664818,12.789 0.993291203,13.356 L6.53210914,15.705 C6.99709386,15.902 7.49907736,16 8.00006089,16 C8.50104442,16 9.00302792,15.902 9.46801264,15.705 L15.0068306,13.356 C16.3447866,12.789 16.3267872,11.065 14.9778315,10.52 L13.5858773,9.958 L15.0068306,9.356 C16.3447866,8.789 16.3267872,7.065 14.9778315,6.52 L14.9778315,6.52 Z" id="fill"></path>
            </g>
        </g>
    </g>
</svg>

<svg width="16" height="16" xmlns="http://www.w3.org/2000/svg"><path d="M14.617 8.435l-5.54 2.349a2.79 2.79 0 01-2.154 0l-5.54-2.349C1.138 8.331.998 8.151 1 7.941c.002-.213.146-.393.396-.493l2.321-.937 2.815 1.194A3.77 3.77 0 008 8a3.77 3.77 0 001.468-.295l2.815-1.194 2.32.937c.25.1.395.28.397.493.002.21-.138.39-.383.494zm-.014 3.013c.25.1.395.28.397.493.002.21-.138.39-.383.494l-5.54 2.349a2.79 2.79 0 01-2.154 0l-5.54-2.349c-.245-.104-.385-.284-.383-.494.002-.213.146-.393.396-.493l2.321-.937 2.815 1.194A3.77 3.77 0 008 12a3.77 3.77 0 001.468-.295l2.815-1.194 2.32.937zM1 3.941c.002-.213.146-.393.396-.493L6.966 1.2C7.291 1.067 7.638 1 8 1c.36 0 .708.067 1.035.2l5.568 2.248c.25.1.395.28.397.493.002.21-.138.39-.383.494l-5.54 2.349a2.79 2.79 0 01-2.154 0l-5.54-2.349C1.138 4.331.998 4.151 1 3.941zM14.978 6.52l-1.392-.562 1.42-.602c1.339-.567 1.32-2.291-.028-2.836L9.409.272a3.77 3.77 0 00-2.818 0L1.021 2.52C-.327 3.065-.345 4.789.993 5.356l1.421.602-1.393.562C-.327 7.065-.345 8.789.993 9.356l1.421.602-1.393.562c-1.348.545-1.366 2.269-.028 2.836l5.54 2.349A3.77 3.77 0 008 16a3.77 3.77 0 001.468-.295l5.539-2.349c1.338-.567 1.32-2.291-.03-2.836l-1.391-.562 1.42-.602c1.339-.567 1.32-2.291-.028-2.836z" fill="#000" fill-rule="evenodd"/></svg>
